X: 65
T: AS WE GO ABOUT OUR WORK
B: O'Neill's 65
M: C
L: 1/8
Z: Transcribed by John Chambers <jc@trillian.mit.edu>
N: "Slow, with expression"
N: "Collected by F.O'Neill"
K:G
d ef \
| gedB AGGE | DGGA G3G | EAAB cdea | fdde ddef |
| (gbaf) (gedB) | AG(G~E) G3G | (DGBG) (cAEF) | G4 z ||
|| (F ED) \
| (EGce) d2dd | gedB G2(.G.G) | (Gcea) f2e>d | d4 z(def) |
| g(.G.G.G) G(.D.D.D) | (EA)(AB) c3c | (BG)(cA) E2F2 | G4 z ||


